src/assets/outline/ColorSwatch.svg

<?xml version="1.0" encoding="UTF-8"?>
<svg width="24" height="24" viewBox="0 0 24 24" xmlns="http://www.w3.org/2000/svg">
 <path d="m5.9998 22.75c-0.3 0-0.62001-0.03-0.94001-0.09-0.17-0.04-0.32-0.08-0.47-0.12-0.17-0.05-0.33001-0.11-0.48001-0.17-0.04-0.01-0.06997-0.03-0.09997-0.04-0.35-0.18-0.65002-0.36-0.92002-0.56-0.02-0.01-0.02999-0.03-0.04999-0.04-0.15-0.12-0.29001-0.24-0.42001-0.38-0.14-0.15-0.24001-0.27-0.35001-0.39-0.23-0.3-0.41999-0.6-0.58999-0.95-0.02-0.03-0.02998-0.07-0.03998-0.11-0.06-0.14-0.11002-0.28-0.15002-0.43-0.06-0.21-0.10001-0.35-0.13001-0.5-0.07-0.35-0.09997-0.66-0.09997-0.96v-13.5c0-1.91 1.34-3.25 3.25-3.25h3c1.91 0 3.25 1.34 3.25 3.25v13.49c0 1.24-0.48 2.42-1.35 3.31-0.16 0.16-0.28001 0.27-0.39002 0.36-0.32 0.28-0.72998 0.53-1.17 0.71-0.1 0.04-0.22 0.09-0.35 0.14-0.49 0.15-1 0.23-1.5 0.23zm-1.26-1.75c0.1 0.04 0.20001 0.07 0.30001 0.1 0.11 0.03 0.21999 0.06 0.32999 0.09 0.55 0.1 1.14 0.07 1.61-0.09 0.07-0.03 0.16998-0.06 0.25998-0.1 0.32-0.13 0.57999-0.29 0.80999-0.48 0.1-0.08 0.17002-0.15 0.24002-0.21 0.63-0.65 0.96-1.45 0.96-2.3v-13.5c0-1.08-0.67-1.75-1.75-1.75h-3c-1.08 0-1.75 0.67-1.75 1.75v13.49c0 0.21 0.02 0.43 0.07 0.66 0.02 0.09 0.04999 0.2 0.07999 0.32 0.04 0.11 0.07002 0.2 0.11002 0.3 0.02 0.03 0.02997 0.06 0.03997 0.08s0.02 0.05 0.03 0.07c0.12 0.22 0.24003 0.41 0.37003 0.58 0.07 0.08 0.16 0.18 0.25 0.28 0.11 0.12 0.19999 0.19 0.29999 0.27 0.01 0.01 0.03 0.02 0.04 0.03 0.16 0.12 0.33999 0.23 0.54999 0.34 0.02 0.01 0.04 0.01 0.06 0.02s0.05 0.03 0.09 0.05z"/>
 <path d="m19.5 22.75h-13.5c-0.41 0-0.75-0.34-0.75-0.75s0.34-0.75 0.75-0.75c0.35 0 0.69001-0.05 0.98001-0.15 0.07-0.03 0.16998-0.06 0.25998-0.1 0.32-0.13 0.58-0.29 0.81-0.48 0.1-0.08 0.17002-0.15 0.24002-0.21l6.84-6.83c0.14-0.14 0.33-0.22 0.53-0.22h3.84c1.91 0 3.25 1.34 3.25 3.25v3c0 1.9-1.34 3.24-3.25 3.24zm-10.04-1.5h10.04c1.08 0 1.75-0.67 1.75-1.75v-3c0-1.08-0.67-1.75-1.75-1.75h-3.53l-6.51 6.5z"/>
 <path d="m4.8102 22.57c-0.07 0-0.13999-0.01-0.20999-0.03-0.74-0.22-1.42-0.63-1.96-1.18-0.54-0.53-0.95002-1.21-1.17-1.95-0.12-0.4 0.1-0.81 0.5-0.93s0.81001 0.1 0.94001 0.49c0.32 1.02 1.12 1.82 2.14 2.14 0.39 0.12 0.61002 0.54 0.49002 0.94-0.11 0.31-0.41001 0.52-0.73001 0.52z"/>
 <path d="m8.86 21.54c-0.19 0-0.37999-0.07-0.52999-0.22-0.29-0.29-0.29998-0.76-0.00998-1.06 0.6-0.61 0.92999-1.42 0.92999-2.27v-9.66c0-0.2 0.08-0.39 0.22-0.53l2.71-2.71c1.31-1.31 3.29-1.31 4.6 0l2.12 2.12c1.35 1.35 1.35 3.25 0 4.6l-9.51 9.5c-0.15 0.16-0.34003 0.23-0.53003 0.23zm1.89-12.89v9.19l7.09-7.08c0.76-0.75998 0.76-1.71 0-2.48l-2.12-2.12c-0.75-0.75-1.73-0.75-2.48 0l-2.49 2.49z"/>
 <path d="m6 19.75c-0.96 0-1.75-0.79-1.75-1.75s0.79-1.75 1.75-1.75 1.75 0.79 1.75 1.75-0.79 1.75-1.75 1.75zm0-2c-0.14 0-0.25 0.11-0.25 0.25 0 0.28 0.5 0.28 0.5 0 0-0.14-0.11-0.25-0.25-0.25z"/>
</svg>

<svg width="24" height="24" viewBox="0 0 24 24"  xmlns="http://www.w3.org/2000/svg">
<path d="M5.99976 22.7498C5.69976 22.7498 5.37975 22.7198 5.05975 22.6598C4.88975 22.6198 4.73975 22.5798 4.58975 22.5398C4.41975 22.4898 4.25974 22.4298 4.10974 22.3698C4.06974 22.3598 4.03977 22.3398 4.00977 22.3298C3.65977 22.1498 3.35975 21.9698 3.08975 21.7698C3.06975 21.7598 3.05976 21.7398 3.03976 21.7298C2.88976 21.6098 2.74975 21.4898 2.61975 21.3498C2.47975 21.1998 2.37974 21.0798 2.26974 20.9598C2.03974 20.6598 1.84975 20.3598 1.67975 20.0098C1.65975 19.9798 1.64977 19.9398 1.63977 19.8998C1.57977 19.7598 1.52975 19.6198 1.48975 19.4698C1.42975 19.2598 1.38974 19.1198 1.35974 18.9698C1.28974 18.6198 1.25977 18.3098 1.25977 18.0098V4.50977C1.25977 2.59977 2.59977 1.25977 4.50977 1.25977H7.50977C9.41977 1.25977 10.7598 2.59977 10.7598 4.50977V17.9998C10.7598 19.2398 10.2798 20.4198 9.40976 21.3098C9.24976 21.4698 9.12975 21.5798 9.01974 21.6698C8.69974 21.9498 8.28976 22.1998 7.84976 22.3798C7.74976 22.4198 7.62976 22.4698 7.49976 22.5198C7.00976 22.6698 6.49976 22.7498 5.99976 22.7498ZM4.73975 20.9998C4.83975 21.0398 4.93976 21.0698 5.03976 21.0998C5.14976 21.1298 5.25975 21.1598 5.36975 21.1898C5.91975 21.2898 6.50977 21.2598 6.97977 21.0998C7.04977 21.0698 7.14975 21.0398 7.23975 20.9998C7.55975 20.8698 7.81974 20.7098 8.04974 20.5198C8.14974 20.4398 8.21976 20.3698 8.28976 20.3098C8.91976 19.6598 9.24976 18.8598 9.24976 18.0098V4.50977C9.24976 3.42977 8.57976 2.75977 7.49976 2.75977H4.49976C3.41976 2.75977 2.74976 3.42977 2.74976 4.50977V17.9998C2.74976 18.2098 2.76976 18.4298 2.81976 18.6598C2.83976 18.7498 2.86975 18.8598 2.89975 18.9798C2.93975 19.0898 2.96977 19.1798 3.00977 19.2798C3.02977 19.3098 3.03974 19.3398 3.04974 19.3598C3.05974 19.3798 3.06974 19.4098 3.07974 19.4298C3.19974 19.6498 3.31977 19.8398 3.44977 20.0098C3.51977 20.0898 3.60977 20.1898 3.69977 20.2898C3.80977 20.4098 3.89976 20.4798 3.99976 20.5598C4.00976 20.5698 4.02976 20.5798 4.03976 20.5898C4.19976 20.7098 4.37975 20.8198 4.58975 20.9298C4.60975 20.9398 4.62975 20.9398 4.64975 20.9498C4.66975 20.9598 4.69975 20.9798 4.73975 20.9998Z" />
<path d="M19.5 22.7498H6C5.59 22.7498 5.25 22.4098 5.25 21.9998C5.25 21.5898 5.59 21.2498 6 21.2498C6.35 21.2498 6.69001 21.1998 6.98001 21.0998C7.05001 21.0698 7.14999 21.0398 7.23999 20.9998C7.55999 20.8698 7.81999 20.7098 8.04999 20.5198C8.14999 20.4398 8.22001 20.3698 8.29001 20.3098L15.13 13.4798C15.27 13.3398 15.46 13.2598 15.66 13.2598H19.5C21.41 13.2598 22.75 14.5998 22.75 16.5098V19.5098C22.75 21.4098 21.41 22.7498 19.5 22.7498ZM9.45999 21.2498H19.5C20.58 21.2498 21.25 20.5798 21.25 19.4998V16.4998C21.25 15.4198 20.58 14.7498 19.5 14.7498H15.97L9.45999 21.2498Z" />
<path d="M4.8102 22.57C4.7402 22.57 4.67021 22.56 4.60021 22.54C3.86021 22.32 3.18022 21.91 2.64022 21.36C2.10022 20.83 1.6902 20.15 1.4702 19.41C1.3502 19.01 1.5702 18.6 1.9702 18.48C2.3702 18.36 2.78021 18.58 2.91021 18.97C3.23021 19.99 4.03019 20.79 5.05019 21.11C5.44019 21.23 5.66021 21.65 5.54021 22.05C5.43021 22.36 5.1302 22.57 4.8102 22.57Z" />
<path d="M8.85997 21.5399C8.66997 21.5399 8.47998 21.4699 8.32998 21.3199C8.03998 21.0299 8.03 20.5599 8.32 20.2599C8.92 19.6499 9.24999 18.8399 9.24999 17.9899V8.32993C9.24999 8.12993 9.32999 7.93993 9.46999 7.79993L12.18 5.08992C13.49 3.77992 15.47 3.77992 16.78 5.08992L18.9 7.20993C20.25 8.55993 20.25 10.4599 18.9 11.8099L9.39 21.3099C9.24 21.4699 9.04997 21.5399 8.85997 21.5399ZM10.75 8.64992V17.8399L17.84 10.7599C18.6 9.99992 18.6 9.04992 17.84 8.27992L15.72 6.15993C14.97 5.40993 13.99 5.40993 13.24 6.15993L10.75 8.64992Z" />
<path d="M6 19.75C5.04 19.75 4.25 18.96 4.25 18C4.25 17.04 5.04 16.25 6 16.25C6.96 16.25 7.75 17.04 7.75 18C7.75 18.96 6.96 19.75 6 19.75ZM6 17.75C5.86 17.75 5.75 17.86 5.75 18C5.75 18.28 6.25 18.28 6.25 18C6.25 17.86 6.14 17.75 6 17.75Z" />
</svg>
